img/logo.svg

<?xml version="1.0" encoding="utf-8"?>
<!-- Generator: Adobe Illustrator 24.0.1, SVG Export Plug-In . SVG Version: 6.00 Build 0)  -->
<svg version="1.1"
	 id="svg20" xmlns:cc="http://creativecommons.org/ns#" xmlns:dc="http://purl.org/dc/elements/1.1/" xmlns:rdf="http://www.w3.org/1999/02/22-rdf-syntax-ns#" xmlns:svg="http://www.w3.org/2000/svg"
	 xmlns="http://www.w3.org/2000/svg" xmlns:xlink="http://www.w3.org/1999/xlink" x="0px" y="0px" viewBox="0 0 999.9 340"
	 style="enable-background:new 0 0 999.9 340;" xml:space="preserve">
<style type="text/css">
	.st0{fill:#BD2D41;}
	.st1{fill:#284D83;}
</style>
<path id="path4636" class="st0" d="M92.1,320c-22-7.4-37.1-23.7-55.2-59.6c-6.5-12.9-8.2-19.4-3-10.8c16.5,26.8,31.8,43.8,45.5,50.4
	c11,5.3,15.2,6.2,28.9,6.2c10.6,0,13.1-0.4,23.3-3.2c10.8-2.9,12.3-3.1,27.9-3.4c18.6-0.3,24.2-1.3,34.5-6.2
	c29.1-14,54.4-52.8,63.7-97.6c1.7-8.2,2.1-13.1,2-26.5c-0.1-14.6-0.3-17.4-2.5-25.3c-3-11.1-8.1-20.4-14.8-27.4
	c-9.1-9.4-19.1-13.5-33.3-13.5c-10.6,0-21,2.8-37.1,10c-6.6,2.9-13.6,5.8-15.7,6.5c-6.2,1.9-22.4,1.2-31.7-1.2
	c-11.7-3.1-10.9-4.1,3.4-4c16.2,0,20-1.3,37.7-12.6c25.3-16.2,43.4-20.2,63.2-13.7c30.5,10,50.2,49.2,48.1,95.8
	c-0.9,20.4-4.4,37.1-12.6,59.9c-14.4,40-35.8,67.3-60.1,76.5c-0.4,0.2-0.8,0.3-1.3,0.4c-9.2,3-21.4,5.8-52.8,5.8
	c-33.1-0.1-46.8-3.2-54.8-5.5C94.1,320.6,92.9,320.2,92.1,320z M19.8,218.7c-5.8-17.4-8-34.9-7.2-56c0.7-18.1,2.9-27.7,8.9-39.6
	c11.4-22.6,30.7-33.6,58.9-33.6c9.7,0,13.6,0.5,26.1,3.3c18.1,4,26.3,5.5,27.6,4.7c2.5-1.5-1.1-19.7-7.1-35.5
	c-3-8-3.9-11.4-3.2-12.6c2.7-4.9,14.2-4.9,16.9,0c0.5,0.9,1.5,12.2,2.1,25.1L144,98h9.5c6.1,0,9.2,0.3,8.6,0.9
	c-0.8,0.8-8.8,2.9-15.8,4.1c-2.1,0.4-2.6,1-2.8,3.4c-0.3,2.7-0.6,3-3.5,3c-3.1,0-4.1-0.8-5.2-4.2c-0.4-1.2-3.2-1.6-17.9-2.3
	c-33.2-1.6-41.7-0.7-56.4,6c-21.4,9.7-35.2,29.2-40.5,57.5c-2,10.6-1.6,35.5,0.9,48.3c1.1,5.7,1.9,10.6,1.7,10.8
	S21.1,222.6,19.8,218.7L19.8,218.7z M270.2,75.5C265,73.4,255.4,68.6,249,65c-18.8-10.7-29.8-13.6-47.4-12.6
	c-19,1.1-35.6,7.6-50.3,19.6c-2.8,2.3-5.3,3.8-5.6,3.5c-1.3-1.2,2.3-5.8,10.2-13.5c7.1-6.8,9.6-8.5,18.1-12.5
	c13.3-6.2,23.7-8.5,38.3-8.5c13.7,0,21.6,1.6,32.2,6.7c4.1,2,7.6,3.6,7.8,3.6c1,0,0.1-3.3-1.9-7.1c-7.6-14.4-20.7-22.1-37.5-22.1
	c-15.5,0-29.1,6-40.1,17.7c-4.9,5.2-5.4,2.7-0.8-3.8c7.5-10.7,20-19,33-21.7c6.8-1.4,18.1-1.1,25,0.6c17.1,4.2,27.7,14.9,37,37.6
	c4,9.7,8.4,17.8,11.7,21.9c1.7,2,2.5,3.8,2,4.3C280.1,79.1,275.8,77.8,270.2,75.5L270.2,75.5z"/>
<g>
	<g>
		<path class="st1" d="M353.1,45.1c5.2-0.4,9.7-0.6,13.6-0.6c13.6,0,23.3,2.2,29,6.7c5.7,4.5,8.6,11.3,8.7,20.4
			c0,8.3-2.3,15.5-6.9,21.6c-4.6,6.1-11,10.4-19.1,13c1.9,1.9,3.8,4.9,5.7,9c1.9,4.1,4.3,9.4,7.1,16c0.8,1.6,1.3,2.8,1.6,3.6
			c2.1,4.6,3.7,7.9,4.8,9.8c1.1,1.9,2.4,3.3,4,4.3c1.6,1,3.8,1.4,6.6,1.4l-0.4,7.2h-24.9c-1.2,0-2.4-1.2-3.6-3.5
			c-1.2-2.3-2.8-6.3-4.8-11.8l-1.3-3.4c-3.3-8.7-6-15.6-8.2-20.8c-2.2-5.1-4.1-8.2-5.7-9.2h-8.8h-5.6l-4.7,39.7l13.4,2.1l-0.4,6.9
			h-44.3l0.4-6.9l10.1-2.1l12.1-93.6L320.8,53l0.7-7.4h21C345,45.7,348.6,45.5,353.1,45.1z M359.1,100c7.2-0.2,12.9-2.7,17.2-7.5
			c4.3-4.8,6.4-11.4,6.4-19.8c0-6.6-1.7-11.5-5-14.7c-3.3-3.2-8.5-4.8-15.6-4.8c-3.6,0-7,0.3-10.3,0.8l-6.1,45.7
			C347.5,99.9,352,100,359.1,100z"/>
		<path class="st1" d="M485.2,81.2c5.5,6.1,8.2,14.8,8.2,26.2c0,9.4-1.9,18.1-5.7,26.1c-3.8,8.1-9.1,14.5-16,19.2
			c-6.9,4.8-14.7,7.2-23.6,7.2c-10.4,0-18.3-3.1-23.7-9.3c-5.4-6.2-8.1-15-8.1-26.5c0-9.5,1.9-18.2,5.6-26.1
			c3.7-7.9,9-14.3,15.9-18.9c6.9-4.7,14.7-7,23.6-7C471.8,72.1,479.7,75.1,485.2,81.2z M447.2,87.9c-3.2,4.2-5.6,9.5-7.1,15.9
			c-1.5,6.4-2.3,13-2.3,19.8c0,9.6,1.1,16.6,3.2,21c2.1,4.4,5.5,6.6,10.1,6.6c4.5,0,8.3-2.1,11.4-6.3c3.1-4.2,5.4-9.6,6.9-16.2
			c1.5-6.5,2.2-13.2,2.2-20.1c0-9.6-1-16.5-3.1-20.7c-2-4.2-5.3-6.3-9.6-6.3C454.3,81.6,450.4,83.7,447.2,87.9z"/>
		<path class="st1" d="M543.4,75c3.7-1.9,7.8-2.8,12.2-2.8c8.3,0,14.5,2.8,18.7,8.4c4.2,5.6,6.3,13.5,6.3,23.6c0,9.6-2,18.6-5.9,27
			c-3.9,8.5-9.6,15.3-17,20.5c-7.4,5.2-15.9,7.8-25.7,7.8c-2.8,0-5.8-0.4-9-1.1c-3.2-0.7-6.2-1.5-8.7-2.4l-9.1,3l14.2-111.3l-7.5-3
			l1.3-5.7l22.7-2.7l3.6,2L533.7,82C536.4,79.2,539.6,76.9,543.4,75z M533.7,150.1c5.9,0,10.8-2.2,14.7-6.6
			c3.9-4.4,6.8-10.1,8.7-17.1c1.9-7,2.8-14.3,2.8-21.8c0-6.1-1-11.1-3.1-15c-2.1-3.9-5.1-5.8-9-5.8c-3.1,0-6,0.9-8.7,2.8
			c-2.7,1.9-5,4.1-7,6.7l-7.2,55.3C527.1,149.6,530,150.1,533.7,150.1z"/>
		<path class="st1" d="M642.3,154.5c-5.8,3.6-12.6,5.4-20.2,5.4c-7.2,0-13.1-1.6-17.7-4.7c-4.6-3.1-8-7.2-10.1-12.2
			c-2.1-5-3.1-10.5-3.1-16.5c0-10.1,2-19.2,6.1-27.6c4-8.3,9.5-14.9,16.5-19.7c7-4.8,14.7-7.2,23.3-7.2c7.7,0,13.4,1.8,17.1,5.4
			c3.7,3.6,5.6,8.2,5.6,14c0,7.2-2.6,13.3-7.8,18.1c-5.2,4.8-11.4,8.4-18.7,10.8c-7.3,2.4-14.1,3.6-20.6,3.8
			c-0.2,7.2,1,13.1,3.5,17.5c2.5,4.4,6.4,6.6,11.6,6.6c8.6,0,16.3-4,23.3-12.1l3.9,6.6C652.3,147,648.1,150.9,642.3,154.5z
			 M618.6,92.2c-3.4,7.1-5.4,15.1-6,23.9c3.9-0.2,8-1.3,12.3-3.2c4.3-1.9,8-4.6,10.9-8.1c2.9-3.5,4.4-7.5,4.4-12
			c0-3.6-0.7-6.4-2-8.4c-1.3-2-3.3-2.9-5.8-2.9C626.6,81.4,622,85,618.6,92.2z"/>
		<path class="st1" d="M707.4,79.3c4.6-4.4,9.8-6.6,15.6-6.6c2,0,3.7,0.5,5.1,1.4l-4.3,21.7c-0.6-0.5-1.6-1-2.9-1.4
			c-1.3-0.5-3-0.7-4.9-0.7c-3.6,0-7,0.8-10.3,2.3c-3.3,1.6-5.8,3.8-7.6,6.7l-7.3,55.7h-19.4l9.4-71.7l-7.6-4.2l1-6l21.4-3.6L699,75
			l-0.7,13.7l-0.6,5.7C699.5,88.7,702.8,83.6,707.4,79.3z"/>
		<path class="st1" d="M754.6,139.8c0,2.3,0.4,3.9,1.3,4.8c0.9,0.9,2.4,1.4,4.5,1.4c2,0,4.2-0.5,6.7-1.4c2.5-0.9,4.6-2.1,6.2-3.5
			l1.6,5.5c-2.5,2.9-6.2,5.5-10.8,7.8c-4.7,2.4-10,3.6-15.8,3.6c-4.1,0-7.4-1.1-9.7-3.2c-2.4-2.1-3.6-5.5-3.6-10.1
			c0-2,0.5-6.6,1.5-13.9l6.2-45.9h-9l1.6-7.1l8.8-3.1c2.9-2.8,6.4-9.6,10.4-20.4h11.4l-2.5,20.1h17.5l-1.5,10.5h-17.6l-6,44.6
			C755,135.1,754.6,138.6,754.6,139.8z"/>
		<path class="st1" d="M883.7,45.7L902,148.3l11.8,2.3l-0.4,6.9h-45.7l0.3-6.9l12.2-2l-3.6-22.7h-37.6l-10,22.5l13.5,2.1l-0.4,6.9
			h-38.7l0.6-6.9l10.1-2L863,45.7H883.7z M843,116.4h32.3l-6.6-44.5L868,59.5L843,116.4z"/>
		<path class="st1" d="M920,139.2c2.5-2.6,5.3-3.8,8.5-3.8c3.2,0,5.7,1,7.5,3.1c1.8,2.1,2.7,4.6,2.7,7.5c0,4.3-1.3,7.7-3.8,10
			c-2.5,2.4-5.6,3.5-9.2,3.5c-2.6,0-4.8-1-6.6-2.9c-1.8-2-2.8-4.5-2.8-7.6C916.2,145,917.5,141.7,920,139.2z"/>
	</g>
	<g>
		<path class="st1" d="M344,196.3c-5.5,0-10,1.3-13.5,4c-3.5,2.7-5.2,6.3-5.2,10.9c0,5.4,1.6,9.9,4.9,13.6
			c3.3,3.7,8.6,7.9,16.2,12.7c7.2,4.6,12.9,9.3,17.1,14.3c4.2,5,6.2,10.9,6.2,17.9c0.1,6.4-1.5,12.2-4.7,17.3
			c-3.2,5.2-7.9,9.2-14.2,12.2c-6.3,3-13.8,4.5-22.5,4.5c-7.1,0-13.9-0.8-20.4-2.4c-6.5-1.6-10.8-3.1-12.8-4.6l3.9-22.6h12.5
			l0.8,16.3c1.8,1.4,4.1,2.5,6.8,3.3c2.8,0.8,5.7,1.2,8.9,1.2c6.8,0,12.2-1.5,16-4.6c3.9-3.1,5.8-7.3,5.8-12.5c0-4.9-1.5-9-4.5-12.5
			c-3-3.5-7.9-7.4-14.7-11.8c-7.5-4.8-13.5-9.8-17.8-15c-4.4-5.3-6.6-11.4-6.7-18.5c0-6.6,1.7-12.3,5.1-17.2
			c3.4-4.9,8.1-8.6,14.1-11.1c6-2.5,12.7-3.8,20.2-3.8c12.7,0,22.3,1.9,28.6,5.8l-3.8,21.3h-11.4l-1.8-14.7
			C354,197.6,349.6,196.3,344,196.3z"/>
		<path class="st1" d="M405.9,288c0,2.4,0.8,3.6,2.5,3.6c0.9,0,1.9-0.3,3-0.9c1.1-0.6,2.5-1.6,4.2-3l1.9,4.7
			c-1.7,2.3-4.2,4.6-7.5,6.9c-3.3,2.3-7.4,3.5-12.2,3.5c-3.9,0-6.9-0.8-9.1-2.3c-2.2-1.6-3.3-3.7-3.3-6.4l0.1-1.5
			c0.6-5.2,2.6-20.4,6.1-45.6l2.4-17.5l-8.8-4.2l1-5.9l25.7-3.6l3.6,1.7l-9.6,68.8C406,286.7,405.9,287.3,405.9,288z M400.8,198.1
			c-1.9-2.1-2.9-4.5-2.9-7.2c0-3.7,1.2-6.8,3.7-9.4c2.4-2.5,5.6-3.8,9.3-3.8c3.1,0,5.5,1,7.3,2.9c1.8,2,2.7,4.3,2.7,7
			c0,3.8-1.1,7-3.4,9.6c-2.3,2.6-5.5,3.8-9.7,3.8C405,201.2,402.7,200.2,400.8,198.1z"/>
		<path class="st1" d="M452.1,287.9c0,2.5,0.9,3.8,2.7,3.8c0.9,0,1.9-0.3,2.9-0.8c1-0.5,2.5-1.6,4.3-3.2l1.9,4.7
			c-1.6,2.3-3.9,4.6-7,6.9c-3.1,2.3-7.1,3.5-12,3.5c-3.8,0-6.9-0.8-9.3-2.3c-2.4-1.6-3.6-4-3.7-7.3c0-0.4,0.2-2.2,0.6-5.4l13-96.5
			l-9.4-3l1.3-5.6l25.4-3l3.4,2l-14,104.6C452.1,286.6,452.1,287.2,452.1,287.9z"/>
		<path class="st1" d="M511.1,182.1l-15.8,119.7h-19.7l14.3-110.1l-9.1-3l1.2-5.6l25.4-3L511.1,182.1z M505.6,254.1
			c4.4-2.5,8.1-5,11.2-7.4c3.1-2.4,6.2-5.7,9.3-9.8c2.5-3.5,3.8-7.5,4-12.1c0.1-3.1,1.2-5.4,3.4-6.8c2.1-1.4,4.5-2.1,7.1-2.1
			c2.6,0,4.6,0.8,6.1,2.4c1.5,1.6,2.2,3.6,2.2,6c0.1,3.6-1.1,7.3-3.7,11c-2.7,3.5-6.4,6.9-11.1,10.1c-4.7,3.2-9.6,6-14.7,8.5
			l16.1,29.3c1.2,2.1,2.5,3.7,4,4.9c1.4,1.2,2.8,1.7,4,1.7c1.1,0,2.4-0.3,3.8-0.8c1.4-0.6,2.8-1.4,4.1-2.5l2.4,4.8
			c-1.7,2.5-4.5,5-8.5,7.5c-4,2.5-8.3,3.8-13,3.8c-3.5,0-6.3-0.7-8.4-2.1c-2.1-1.4-3.9-3.5-5.2-6.3L502,256.3L505.6,254.1z"/>
		<path class="st1" d="M560.9,227.9c-0.5-0.7-1.1-1-1.9-1c-1,0-1.9,0.2-2.6,0.7c-0.7,0.5-1.3,0.8-1.6,1l-2.1-5.1
			c1.1-1.5,3.3-3.3,6.6-5.3c3.3-2,6.8-3,10.6-3c4,0,6.9,0.8,8.7,2.5c1.8,1.7,3.1,4.2,3.7,7.6l5.8,46.3l1.6,15.1l6.1-18.3l18.1-52.7
			h17.9l6.9,57.7l1.2,12.8l5.5-8.5c4.1-6.2,7.4-12.7,10-19.4c2.6-6.7,3.9-13.2,4-19.5c0-1.8-0.4-4.3-1.2-7.5c-0.8-3-1.2-5.2-1.2-6.6
			c0-2.8,0.9-5.1,2.7-6.9c1.8-1.8,4.2-2.6,7.2-2.6c3.9,0,6.7,1.4,8.5,4.3c1.8,2.9,2.7,6.6,2.7,11.2c0.1,6.5-3,15.4-9.2,26.6
			c-6.2,11.2-12.7,21-19.3,29.4l-10.9,14.8l-14.3,0.8l-3.9-26.7l-2.5-24.9l-0.9-10.7l-3,10.9l-9.7,22.6l-11.5,27.9l-16.4,1.1
			l-5.4-26.9l-8.8-44.2C561.8,229.7,561.4,228.6,560.9,227.9z"/>
		<path class="st1" d="M753.4,224.6c5.5,6.1,8.2,14.8,8.2,26.2c0,9.4-1.9,18.1-5.7,26.1c-3.8,8.1-9.1,14.5-16,19.2
			c-6.9,4.8-14.7,7.2-23.6,7.2c-10.4,0-18.3-3.1-23.7-9.3c-5.4-6.2-8.1-15-8.1-26.5c0-9.5,1.9-18.2,5.6-26.1
			c3.7-7.9,9-14.3,15.9-18.9c6.9-4.7,14.7-7,23.6-7C740,215.4,748,218.5,753.4,224.6z M715.5,231.2c-3.2,4.2-5.6,9.5-7.1,15.9
			c-1.5,6.4-2.3,13-2.3,19.8c0,9.6,1.1,16.6,3.2,21c2.1,4.4,5.5,6.6,10.1,6.6c4.5,0,8.3-2.1,11.4-6.3c3.1-4.2,5.4-9.6,6.9-16.2
			c1.5-6.5,2.2-13.2,2.2-20.1c0-9.6-1-16.5-3.1-20.7c-2-4.2-5.3-6.3-9.6-6.3C722.6,224.9,718.7,227,715.5,231.2z"/>
		<path class="st1" d="M810.6,222.6c4.6-4.4,9.8-6.6,15.6-6.6c2,0,3.7,0.5,5.1,1.4l-4.3,21.7c-0.6-0.5-1.6-1-2.9-1.4
			c-1.3-0.5-3-0.7-4.9-0.7c-3.6,0-7,0.8-10.3,2.3c-3.3,1.6-5.8,3.8-7.6,6.7l-7.3,55.7h-19.4l9.4-71.7l-7.6-4.2l1-6l21.4-3.6l3.4,2.1
			l-0.7,13.7l-0.6,5.7C802.7,232,806,227,810.6,222.6z"/>
		<path class="st1" d="M857.8,283.1c0,2.3,0.4,3.9,1.3,4.8c0.9,0.9,2.4,1.4,4.5,1.4c2,0,4.2-0.5,6.7-1.4c2.5-0.9,4.6-2.1,6.2-3.5
			l1.6,5.5c-2.5,2.9-6.2,5.5-10.8,7.8c-4.7,2.4-10,3.6-15.8,3.6c-4.1,0-7.4-1.1-9.7-3.2c-2.4-2.1-3.6-5.5-3.6-10.1
			c0-2,0.5-6.6,1.5-13.9l6.2-45.9h-9l1.6-7.1l8.8-3.1c2.9-2.8,6.4-9.6,10.4-20.4h11.4l-2.5,20.1h17.5l-1.5,10.5h-17.6l-6,44.6
			C858.1,278.5,857.8,282,857.8,283.1z"/>
		<path class="st1" d="M929.5,221.3c5.1-3.5,10.6-5.3,16.4-5.3c5.9,0,10.4,1.7,13.7,5.1c3.2,3.4,4.9,9.1,4.9,17.1
			c0,3.1-0.6,8.1-1.7,14.8c-1.1,6.7-1.8,10.6-1.9,11.5l-0.9,4.8c-0.6,3.3-1.2,6.7-1.7,10.3c-0.5,3.5-0.8,6.4-0.8,8.6
			c0,2.7,0.8,4.1,2.5,4.1c0.9,0,1.8-0.3,2.8-0.8c1-0.6,2.4-1.5,4.2-2.9l1.9,4.7c-1.3,2-3.7,4.2-7.2,6.6c-3.5,2.4-7.7,3.5-12.6,3.5
			c-4.9,0-8.2-1-10-2.9c-1.8-2-2.7-4.8-2.7-8.4c0.1-3,1-9,2.8-18l0.9-5.1c0.2-0.9,0.6-3.3,1.3-7.2c0.6-3.9,1.2-7.7,1.6-11.2
			c0.4-3.6,0.6-6.7,0.6-9.3c0-4.6-0.5-7.8-1.6-9.5c-1.1-1.7-2.9-2.6-5.5-2.6c-3.4,0-7.1,1.9-11.3,5.8c-4.1,3.9-7.6,8.6-10.5,14.1
			l-6.6,52.8h-19.9l13.6-110.1l-9-3l1-5.6l25.5-3l3.6,2l-6.7,53.3C920,229.5,924.4,224.9,929.5,221.3z"/>
	</g>
</g>
</svg>

<?xml version="1.0" encoding="UTF-8" standalone="no"?>
<!DOCTYPE svg PUBLIC "-//W3C//DTD SVG 1.1//EN" "http://www.w3.org/Graphics/SVG/1.1/DTD/svg11.dtd">
<svg width="100%" height="100%" viewBox="0 0 350 100" version="1.1" xmlns="http://www.w3.org/2000/svg" xmlns:xlink="http://www.w3.org/1999/xlink" xml:space="preserve" xmlns:serif="http://www.serif.com/" style="fill-rule:evenodd;clip-rule:evenodd;stroke-linejoin:round;stroke-miterlimit:2;">
    <g transform="matrix(0.927565,0,0,1.05636,241.459,3.67552)">
        <g>
            <g id="path4636" transform="matrix(0.342513,0,0,0.302358,-264.577,-7.53497)">
                <path d="M92.1,320C70.1,312.6 55,296.3 36.9,260.4C30.4,247.5 28.7,241 33.9,249.6C50.4,276.4 65.7,293.4 79.4,300C90.4,305.3 94.6,306.2 108.3,306.2C118.9,306.2 121.4,305.8 131.6,303C142.4,300.1 143.9,299.9 159.5,299.6C178.1,299.3 183.7,298.3 194,293.4C223.1,279.4 248.4,240.6 257.7,195.8C259.4,187.6 259.8,182.7 259.7,169.3C259.6,154.7 259.4,151.9 257.2,144C254.2,132.9 249.1,123.6 242.4,116.6C233.3,107.2 223.3,103.1 209.1,103.1C198.5,103.1 188.1,105.9 172,113.1C165.4,116 158.4,118.9 156.3,119.6C150.1,121.5 133.9,120.8 124.6,118.4C112.9,115.3 113.7,114.3 128,114.4C144.2,114.4 148,113.1 165.7,101.8C191,85.6 209.1,81.6 228.9,88.1C259.4,98.1 279.1,137.3 277,183.9C276.1,204.3 272.6,221 264.4,243.8C250,283.8 228.6,311.1 204.3,320.3C203.9,320.5 203.5,320.6 203,320.7C193.8,323.7 181.6,326.5 150.2,326.5C117.1,326.4 103.4,323.3 95.4,321C94.1,320.6 92.9,320.2 92.1,320ZM19.8,218.7C14,201.3 11.8,183.8 12.6,162.7C13.3,144.6 15.5,135 21.5,123.1C32.9,100.5 52.2,89.5 80.4,89.5C90.1,89.5 94,90 106.5,92.8C124.6,96.8 132.8,98.3 134.1,97.5C136.6,96 133,77.8 127,62C124,54 123.1,50.6 123.8,49.4C126.5,44.5 138,44.5 140.7,49.4C141.2,50.3 142.2,61.6 142.8,74.5L144,98L153.5,98C159.6,98 162.7,98.3 162.1,98.9C161.3,99.7 153.3,101.8 146.3,103C144.2,103.4 143.7,104 143.5,106.4C143.2,109.1 142.9,109.4 140,109.4C136.9,109.4 135.9,108.6 134.8,105.2C134.4,104 131.6,103.6 116.9,102.9C83.7,101.3 75.2,102.2 60.5,108.9C39.1,118.6 25.3,138.1 20,166.4C18,177 18.4,201.9 20.9,214.7C22,220.4 22.8,225.3 22.6,225.5C22.4,225.7 21.1,222.6 19.8,218.7ZM270.2,75.5C265,73.4 255.4,68.6 249,65C230.2,54.3 219.2,51.4 201.6,52.4C182.6,53.5 166,60 151.3,72C148.5,74.3 146,75.8 145.7,75.5C144.4,74.3 148,69.7 155.9,62C163,55.2 165.5,53.5 174,49.5C187.3,43.3 197.7,41 212.3,41C226,41 233.9,42.6 244.5,47.7C248.6,49.7 252.1,51.3 252.3,51.3C253.3,51.3 252.4,48 250.4,44.2C242.8,29.8 229.7,22.1 212.9,22.1C197.4,22.1 183.8,28.1 172.8,39.8C167.9,45 167.4,42.5 172,36C179.5,25.3 192,17 205,14.3C211.8,12.9 223.1,13.2 230,14.9C247.1,19.1 257.7,29.8 267,52.5C271,62.2 275.4,70.3 278.7,74.4C280.4,76.4 281.2,78.2 280.7,78.7C280.1,79.1 275.8,77.8 270.2,75.5Z" style="fill:rgb(169,63,74);fill-rule:nonzero;"/>
            </g>
            <g transform="matrix(1.99751,0,0,1.75446,-342.733,-57.8152)">
                <text x="89.731px" y="55.15px" style="font-family:'Merriweather-BoldItalic', 'Merriweather';font-weight:700;font-style:italic;font-size:30px;fill:rgb(48,60,70);">R<tspan x="111.001px 129.271px 147.361px 163.621px 176.611px 187.861px 195.571px 215.911px " y="55.15px 55.15px 55.15px 55.15px 55.15px 55.15px 55.15px 55.15px ">obert A.</tspan></text>
                <text x="89.731px" y="84.537px" style="font-family:'Merriweather-BoldItalic', 'Merriweather';font-weight:700;font-style:italic;font-size:30px;fill:rgb(48,60,70);">S<tspan x="106.921px 117.181px 126.931px 144.031px 170.161px 188.431px 201.421px 212.671px " y="84.537px 84.537px 84.537px 84.537px 84.537px 84.537px 84.537px 84.537px ">ilkworth</tspan></text>
            </g>
        </g>
    </g>
</svg>
